flaticon/baby/toys.svg

<svg xmlns="http://www.w3.org/2000/svg" width="32" height="32" viewBox="0 0 24 24">
    <path d="M13.566406 12.984375C13.871094 12.78125 14.070312 12.4375 14.070312 12.046875L14.070312 10.992188C14.070312 10.46875 13.710938 10.03125 13.226562 9.90625 13.136719 8.515625 12.523438 8.207031 12 8.207031 11.625 8.207031 11.363281 8.347656 11.179688 8.558594 10.773438 8.269531 10.273438 8.191406 9.828125 8.367188 9.535156 7.074219 8.582031 6.140625 7.449219 6.140625 6.488281 6.140625 5.628906 6.828125 5.222656 7.871094 5.007812 7.78125 4.78125 7.738281 4.550781 7.738281 3.9375 7.738281 3.378906 8.058594 2.992188 8.609375 2.722656 8.390625 2.402344 8.269531 2.070312 8.269531 1.203125 8.269531.496094 9.082031.425781 10.113281.167969 10.320312 0 10.636719 0 10.992188L0 12.046875C0 12.4375.199219 12.78125.5 12.984375.449219 13.320312.414062 13.660156.414062 14 .414062 15.78125 1.121094 17.394531 2.269531 18.585938L2.792969 22.398438C2.882812 23.035156 3.4375 23.519531 4.082031 23.519531L9.984375 23.519531C10.632812 23.519531 11.183594 23.035156 11.273438 22.398438L11.800781 18.585938C12.945312 17.394531 13.65625 15.78125 13.65625 14 13.65625 13.660156 13.621094 13.320312 13.566406 12.984375zM11.015625 18.195312C9.976562 19.183594 8.578125 19.792969 7.035156 19.792969 5.492188 19.792969 4.089844 19.183594 3.050781 18.195312L2.359375 13.175781 11.710938 13.175781zM1.410156 12.347656L1.125 12.347656C.960938 12.347656.828125 12.210938.828125 12.046875L.828125 10.992188C.828125 10.824219.960938 10.691406 1.125 10.691406L12.941406 10.691406C13.105469 10.691406 13.242188 10.824219 13.242188 10.992188L13.242188 12.046875C13.242188 12.210938 13.105469 12.347656 12.941406 12.347656zM12 9.035156C12.265625 9.035156 12.359375 9.476562 12.394531 9.863281L11.597656 9.863281C11.65625 9.035156 11.890625 9.035156 12 9.035156zM2.070312 9.09375C2.316406 9.09375 2.550781 9.261719 2.710938 9.546875 2.789062 9.6875 2.941406 9.769531 3.101562 9.757812 3.261719 9.746094 3.402344 9.640625 3.457031 9.492188 3.675781 8.917969 4.097656 8.5625 4.550781 8.5625 4.777344 8.5625 5 8.652344 5.195312 8.820312 5.304688 8.914062 5.457031 8.941406 5.597656 8.894531 5.734375 8.847656 5.835938 8.734375 5.867188 8.589844 6.074219 7.636719 6.726562 6.96875 7.449219 6.96875 8.316406 6.96875 9.058594 7.933594 9.09375 9.117188 9.101562 9.289062 9.210938 9.441406 9.371094 9.496094 9.535156 9.550781 9.714844 9.503906 9.824219 9.371094 9.929688 9.246094 10.109375 9.09375 10.34375 9.09375 10.558594 9.09375 10.71875 9.21875 10.832031 9.339844 10.792969 9.519531 10.777344 9.699219 10.765625 9.863281L1.296875 9.863281C1.417969 9.421875 1.722656 9.09375 2.070312 9.09375zM1.242188 14C1.242188 13.722656 1.269531 13.449219 1.308594 13.175781L1.523438 13.175781 2.039062 16.921875C1.535156 16.0625 1.242188 15.066406 1.242188 14zM10.453125 22.285156C10.421875 22.515625 10.222656 22.691406 9.984375 22.691406L4.082031 22.691406C3.847656 22.691406 3.648438 22.515625 3.613281 22.285156L3.21875 19.402344C4.296875 20.167969 5.613281 20.621094 7.035156 20.621094 8.457031 20.621094 9.769531 20.167969 10.851562 19.402344zM12.027344 16.921875L12.546875 13.175781 12.761719 13.175781C12.800781 13.449219 12.828125 13.722656 12.828125 14 12.828125 15.066406 12.53125 16.0625 12.027344 16.921875zM23.847656 1.636719C23.660156 1.304688 23.339844 1.089844 22.960938 1.042969L18.53125.492188C18.15625.441406 17.789062.574219 17.527344.851562 17.265625 1.125 17.15625 1.496094 17.222656 1.867188 17.40625 2.894531 17.972656 3.773438 18.742188 4.324219L17.644531 13.144531C15.902344 13.53125 14.5 14.976562 14.265625 16.847656L13.726562 21.1875C13.644531 21.851562 14.117188 22.457031 14.78125 22.539062L20.996094 23.3125C21.046875 23.320312 21.097656 23.324219 21.148438 23.324219 21.417969 23.324219 21.675781 23.234375 21.890625 23.066406 22.148438 22.867188 22.308594 22.582031 22.347656 22.257812L22.886719 17.917969C23.03125 16.773438 22.714844 15.636719 22 14.71875 21.597656 14.195312 21.089844 13.789062 20.519531 13.503906L21.601562 4.785156C22.574219 4.476562 23.429688 3.722656 23.894531 2.699219 24.050781 2.355469 24.03125 1.96875 23.847656 1.636719zM21.347656 15.226562C21.929688 15.96875 22.183594 16.890625 22.066406 17.816406L21.527344 22.15625C21.515625 22.257812 21.464844 22.351562 21.382812 22.414062 21.300781 22.476562 21.199219 22.503906 21.097656 22.492188L14.882812 21.71875C14.671875 21.691406 14.519531 21.5 14.546875 21.289062L15.085938 16.949219C15.328125 15.027344 17.089844 13.65625 19.011719 13.894531 19.941406 14.007812 20.769531 14.480469 21.347656 15.226562zM20.75 4.9375L19.742188 13.054688C19.539062 12.996094 19.335938 12.953125 19.132812 12.929688 18.964844 12.910156 18.792969 12.898438 18.621094 12.898438 18.582031 12.898438 18.546875 12.898438 18.507812 12.898438L19.519531 4.785156 19.691406 4.804688C19.867188 4.859375 20.046875 4.898438 20.230469 4.921875 20.355469 4.9375 20.484375 4.945312 20.609375 4.945312 20.652344 4.945312 20.695312 4.9375 20.738281 4.933594zM23.140625 2.355469C22.683594 3.363281 21.761719 4.03125 20.792969 4.109375L19.882812 3.996094C18.964844 3.683594 18.230469 2.808594 18.035156 1.722656 18.015625 1.613281 18.050781 1.503906 18.128906 1.421875 18.195312 1.347656 18.289062 1.308594 18.386719 1.308594 18.398438 1.308594 18.414062 1.308594 18.429688 1.3125L22.859375 1.863281C22.972656 1.875 23.070312 1.941406 23.125 2.042969 23.179688 2.140625 23.1875 2.253906 23.140625 2.355469zM23.140625 2.355469"/>
</svg>

<svg xmlns="http://www.w3.org/2000/svg" width="32" height="32" viewBox="0 0 24 24">
    <path d="M13.566 12.984c.305-.203.504-.546.504-.937v-1.055c0-.523-.36-.96-.843-1.086-.09-1.39-.704-1.699-1.227-1.699-.375 0-.637.14-.82.352-.407-.29-.907-.368-1.352-.192-.293-1.293-1.246-2.226-2.379-2.226-.96 0-1.82.687-2.226 1.73a1.732 1.732 0 0 0-.672-.133c-.614 0-1.172.32-1.559.871a1.46 1.46 0 0 0-.922-.34c-.867 0-1.574.813-1.644 1.844a1.127 1.127 0 0 0-.426.88v1.054c0 .39.2.734.5.937C.45 13.32.414 13.66.414 14c0 1.781.707 3.395 1.856 4.586l.523 3.812a1.31 1.31 0 0 0 1.289 1.122h5.902c.649 0 1.2-.485 1.29-1.122l.527-3.812A6.6 6.6 0 0 0 13.656 14c0-.34-.035-.68-.09-1.016zm-2.55 5.211a5.765 5.765 0 0 1-7.965 0l-.692-5.02h9.352zM1.41 12.348h-.285a.3.3 0 0 1-.297-.301v-1.055c0-.168.133-.3.297-.3h11.816a.3.3 0 0 1 .301.3v1.055c0 .164-.137.3-.3.3zM12 9.035c.266 0 .36.442.395.828h-.797c.058-.828.293-.828.402-.828zm-9.93.059c.246 0 .48.168.64.453a.412.412 0 0 0 .747-.055c.219-.574.64-.93 1.094-.93.226 0 .449.09.644.258a.415.415 0 0 0 .672-.23c.207-.953.86-1.621 1.582-1.621.867 0 1.61.965 1.645 2.148a.414.414 0 0 0 .73.254c.106-.125.285-.277.52-.277.215 0 .375.125.488.246-.039.18-.055.36-.066.523h-9.47c.122-.441.427-.77.774-.77zM1.242 14c0-.277.028-.55.067-.824h.214l.516 3.746A5.755 5.755 0 0 1 1.242 14zm9.211 8.285a.472.472 0 0 1-.469.406H4.082a.478.478 0 0 1-.469-.406l-.394-2.883a6.58 6.58 0 0 0 7.633 0zm1.574-5.363l.52-3.746h.215c.039.273.066.547.066.824a5.758 5.758 0 0 1-.8 2.922zm0 0M23.848 1.637a1.17 1.17 0 0 0-.887-.594l-4.43-.55a1.157 1.157 0 0 0-1.004.359 1.159 1.159 0 0 0-.304 1.015c.183 1.028.75 1.906 1.52 2.457l-1.098 8.82a4.358 4.358 0 0 0-3.38 3.704l-.538 4.34c-.082.664.39 1.269 1.054 1.351l6.215.773a1.198 1.198 0 0 0 .895-.246c.257-.199.418-.484.457-.808l.539-4.34a4.3 4.3 0 0 0-.887-3.2 4.259 4.259 0 0 0-1.48-1.214l1.082-8.719c.972-.308 1.828-1.062 2.293-2.086.156-.344.136-.73-.047-1.062zm-2.5 13.59c.582.742.836 1.664.718 2.59l-.539 4.34a.377.377 0 0 1-.144.257.394.394 0 0 1-.285.078l-6.215-.773a.386.386 0 0 1-.336-.43l.539-4.34a3.527 3.527 0 0 1 3.926-3.054c.93.113 1.758.585 2.336 1.332zm-.598-10.29l-1.008 8.118a3.751 3.751 0 0 0-.61-.125 4.443 4.443 0 0 0-.51-.032h-.114l1.012-8.113.171.02a3.157 3.157 0 0 0 .918.14c.043 0 .086-.008.13-.011zm2.39-2.582c-.456 1.008-1.378 1.676-2.347 1.754l-.91-.113c-.918-.312-1.653-1.187-1.848-2.273a.345.345 0 0 1 .094-.301.343.343 0 0 1 .3-.11l4.43.551a.34.34 0 0 1 .266.18.34.34 0 0 1 .016.312zm0 0"/>
</svg>
